svgs/solid/starfighter.svg

<svg xmlns="http://www.w3.org/2000/svg" viewBox="0 0 640 512"><!-- Font Awesome Pro 5.15.3 by @fontawesome - https://fontawesome.com License - https://fontawesome.com/license (Commercial License) --><path d="M208,288H144a15.99985,15.99985,0,0,0-16,16v48H48V160h8a8.00008,8.00008,0,0,0,8-8V136a7.99977,7.99977,0,0,0-8-8H48V112.85547c0-7.96924-5.44531-15.356-13.311-16.63623A16.01034,16.01034,0,0,0,16,112v16H8a7.99977,7.99977,0,0,0-8,8v16a8.00008,8.00008,0,0,0,8,8h8V431.14209c0,7.97021,5.44531,15.3584,13.312,16.63867A16.01152,16.01152,0,0,0,48,432v-3.20117L176,480v16a16.00016,16.00016,0,0,0,16,16h16a16.00016,16.00016,0,0,0,16-16V304A15.99985,15.99985,0,0,0,208,288ZM632,128h-8V112.85547c0-7.96924-5.44531-15.356-13.311-16.63623A16.01034,16.01034,0,0,0,592,112v16h-8a7.99977,7.99977,0,0,0-8,8v16a8.00008,8.00008,0,0,0,8,8h8V352H512V304a15.99985,15.99985,0,0,0-16-16H432a15.99985,15.99985,0,0,0-16,16V496a16.00016,16.00016,0,0,0,16,16h16a16.00016,16.00016,0,0,0,16-16V480l128-51.20117v2.34326c0,7.97021,5.44531,15.3584,13.312,16.63867A16.01152,16.01152,0,0,0,624,432V160h8a8.00008,8.00008,0,0,0,8-8V136A7.99977,7.99977,0,0,0,632,128ZM337.875,0h-35.75a15.99837,15.99837,0,0,0-15.877,14.01562L256,256V464a16.00079,16.00079,0,0,0,16,16h96a16.00079,16.00079,0,0,0,16-16V256L353.752,14.01562A15.99837,15.99837,0,0,0,337.875,0ZM352,304a16.00079,16.00079,0,0,1-16,16H304a16.00079,16.00079,0,0,1-16-16V256a32,32,0,0,1,64,0Z"/></svg>

<svg xmlns="http://www.w3.org/2000/svg" viewBox="0 0 640 512"><!--! Font Awesome Pro 6.0.0-alpha3 by @fontawesome - https://fontawesome.com License - https://fontawesome.com/license (Commercial License) --><path d="M208 288h-64C135.1 288 128 295.1 128 304V352H48V160h8C60.38 160 64 156.4 64 152v-16C64 131.6 60.38 128 56 128H48V112.9c0-8-5.531-15.38-13.28-16.63C29.97 95.36 25.25 96.75 21.62 99.75C18.12 102.8 16 107.2 16 112V128H8C3.625 128 0 131.6 0 136v16C0 156.4 3.625 160 8 160h7.1L16 431.1c0 8 5.531 15.38 13.28 16.63c4.75 .875 9.469-.5157 13.09-3.516C45.88 441.1 48 436.8 48 432v-3.226L176 480v16c0 8.875 7.125 16 15.1 16H208C216.9 512 224 504.9 224 496v-192C224 295.1 216.9 288 208 288zM632 128H624V112.9c0-8-5.531-15.38-13.28-16.63c-4.75-.875-9.469 .5156-13.09 3.516C594.1 102.8 592 107.2 592 112V128h-8C579.6 128 576 131.6 576 136v16C576 156.4 579.6 160 584 160h8v192H512V304C512 295.1 504.9 288 496 288h-64C423.1 288 416 295.1 416 304v192c0 8.875 7.125 16 16 16H448c8.875 0 16-7.125 16-16V480l128-51.23v2.359c0 8 5.531 15.38 13.28 16.63c4.75 .875 9.469-.5157 13.09-3.516C621.9 441.1 624 436.8 624 432V160h8C636.4 160 640 156.4 640 152v-16C640 131.6 636.4 128 632 128zM337.9 0H302.1c-8.125 0-14.87 6.007-15.87 14.01L256 256v208C256 472.9 263.1 480 272 480h96c8.875 0 16-7.125 16-16V256l-30.25-241.1C352.8 6.008 345.1 0 337.9 0zM352 304c0 8.875-7.125 16-16 16h-32C295.1 320 288 312.9 288 304V256c0-17.62 14.38-32 32-32s32 14.38 32 32V304z"/></svg>
